src/assets/IconRewardsInactive.svg

<svg width="557" height="557" fill="none" xmlns="http://www.w3.org/2000/svg"><path fill-rule="evenodd" clip-rule="evenodd" d="M278.5 557C432.311 557 557 432.311 557 278.5S432.311 0 278.5 0 0 124.689 0 278.5 124.689 557 278.5 557z" fill="#FFE2D7"/><path d="M194.442 220.022C217.096 227.746 247.126 232 279 232c31.874 0 61.904-4.254 84.558-11.978C387.703 211.79 401 200.24 401 187.5c0-12.741-13.297-24.291-37.442-32.523C340.904 147.254 310.874 143 279 143c-31.874 0-61.904 4.254-84.558 11.978C170.297 163.209 157 174.759 157 187.5s13.297 24.29 37.442 32.522z" fill="#fff"/><path fill-rule="evenodd" clip-rule="evenodd" d="M392.677 237c-1.913 0-3.986.647-6.339 1.978-3.473 1.966-7.859 3.475-12.502 5.074l-1.346.465c-25.35 8.765-58.553 13.592-93.49 13.592-34.936 0-68.139-4.827-93.489-13.592-7.17-2.479-9.162-3.259-11.811-4.62-2.693-1.412-5.199-2.128-7.452-2.128-4.879 0-7.876 3.273-8.682 6.518a19.032 19.032 0 0 0-.566 4.587c0 12.919 13.297 24.633 37.441 32.98C217.095 289.686 247.125 294 279 294c31.874 0 61.904-4.314 84.558-12.146 24.145-8.347 37.442-20.061 37.442-32.98 0-2.012-.327-4.031-.983-6.031-1.664-5.083-5.312-5.843-7.34-5.843zM392.679 297c-1.913 0-3.986.647-6.338 1.978-3.47 1.964-7.853 3.472-12.491 5.069l-1.359.469c-25.351 8.764-58.554 13.592-93.49 13.592-34.936 0-68.138-4.828-93.489-13.592-7.171-2.48-9.163-3.26-11.812-4.621-2.693-1.411-5.199-2.128-7.452-2.128-4.879 0-7.876 3.274-8.682 6.519a19.024 19.024 0 0 0-.566 4.586c0 12.92 13.297 24.632 37.441 32.982C217.095 349.686 247.125 354 279 354c31.874 0 61.904-4.314 84.558-12.146C387.703 333.505 401 321.792 401 308.872a19.26 19.26 0 0 0-.983-6.029c-1.662-5.083-5.31-5.843-7.338-5.843zM392.677 357c-1.913 0-3.986.646-6.338 1.977-3.476 1.967-7.865 3.477-12.513 5.078l-1.336.461c-25.35 8.765-58.553 13.593-93.49 13.593-34.936 0-68.139-4.828-93.489-13.593-7.17-2.479-9.162-3.259-11.811-4.62-2.693-1.412-5.199-2.128-7.452-2.128-4.879 0-7.876 3.274-8.682 6.519a19.024 19.024 0 0 0-.566 4.586c0 12.919 13.297 24.632 37.441 32.981C217.095 409.686 247.125 414 279 414c31.874 0 61.904-4.314 84.558-12.146C387.703 393.506 401 381.793 401 368.873c0-2.012-.327-4.032-.982-6.029-1.664-5.085-5.313-5.844-7.341-5.844z" fill="#FF9084" fill-opacity=".25"/></svg>

<svg width="557" height="557" viewBox="0 0 557 557" fill="none" xmlns="http://www.w3.org/2000/svg">
<g id="Group 72">
<g id="Group 65">
<path id="Oval Copy 14" fill-rule="evenodd" clip-rule="evenodd" d="M278.5 557C432.311 557 557 432.311 557 278.5C557 124.689 432.311 0 278.5 0C124.689 0 0 124.689 0 278.5C0 432.311 124.689 557 278.5 557Z" fill="#FFE2D7"/>
<path id="Path" d="M194.442 220.022C217.096 227.746 247.126 232 279 232C310.874 232 340.904 227.746 363.558 220.022C387.703 211.79 401 200.24 401 187.5C401 174.759 387.703 163.209 363.558 154.977C340.904 147.254 310.874 143 279 143C247.126 143 217.096 147.254 194.442 154.978C170.297 163.209 157 174.759 157 187.5C157 200.241 170.297 211.79 194.442 220.022Z" fill="white"/>
<path id="Path_2" fill-rule="evenodd" clip-rule="evenodd" d="M392.677 237C390.764 237 388.691 237.647 386.338 238.978C382.865 240.944 378.479 242.453 373.836 244.052L372.49 244.517C347.14 253.282 313.937 258.109 279 258.109C244.064 258.109 210.861 253.282 185.511 244.517C178.341 242.038 176.349 241.258 173.7 239.897C171.007 238.485 168.501 237.769 166.248 237.769C161.369 237.769 158.372 241.042 157.566 244.287C157.19 245.8 157 247.342 157 248.874C157 261.793 170.297 273.507 194.441 281.854C217.095 289.686 247.125 294 279 294C310.874 294 340.904 289.686 363.558 281.854C387.703 273.507 401 261.793 401 248.874C401 246.862 400.673 244.843 400.017 242.843C398.353 237.76 394.705 237 392.677 237Z" fill="#FF9084" fill-opacity="0.25"/>
<path id="Path_3" fill-rule="evenodd" clip-rule="evenodd" d="M392.679 297C390.766 297 388.693 297.647 386.341 298.978C382.871 300.942 378.488 302.45 373.85 304.047L372.491 304.516C347.14 313.28 313.937 318.108 279.001 318.108C244.065 318.108 210.863 313.28 185.512 304.516C178.341 302.036 176.349 301.256 173.7 299.895C171.007 298.484 168.501 297.767 166.248 297.767C161.369 297.767 158.372 301.041 157.566 304.286C157.19 305.798 157 307.341 157 308.872C157 321.792 170.297 333.504 194.441 341.854C217.095 349.686 247.125 354 279 354C310.874 354 340.904 349.686 363.558 341.854C387.703 333.505 401 321.792 401 308.872C401 306.86 400.673 304.84 400.017 302.843C398.355 297.76 394.707 297 392.679 297Z" fill="#FF9084" fill-opacity="0.25"/>
<path id="Path_4" fill-rule="evenodd" clip-rule="evenodd" d="M392.677 357C390.764 357 388.691 357.646 386.339 358.977C382.863 360.944 378.474 362.454 373.826 364.055L372.49 364.516C347.14 373.281 313.937 378.109 279 378.109C244.064 378.109 210.861 373.281 185.511 364.516C178.341 362.037 176.349 361.257 173.7 359.896C171.007 358.484 168.501 357.768 166.248 357.768C161.369 357.768 158.372 361.042 157.566 364.287C157.19 365.799 157 367.342 157 368.873C157 381.792 170.297 393.505 194.441 401.854C217.095 409.686 247.125 414 279 414C310.874 414 340.904 409.686 363.558 401.854C387.703 393.506 401 381.793 401 368.873C401 366.861 400.673 364.841 400.018 362.844C398.354 357.759 394.705 357 392.677 357Z" fill="#FF9084" fill-opacity="0.25"/>
</g>
</g>
</svg>
